!!!!SEGMENT: pl-cz--iii-563--001-006_raszek-waclaw--missa-ex-dis-sanctus.krn
!!!cenid: 17xx:1075
!!!COM: Raszek, Wacław
!!!COM-rismID: pe30020314
!!!CDT: <1848->1848
!!!CNT:
!!!OPR: Missa ex Dis
!!!OTL: Sanctus
!!!OMV: 006
!!!PDT:
!!!AGN: Sacred; Mass
!!!YEC: Copyright 2022 Narodowy Instytut Fryderyka Chopina (https://polishscores.org)
!!!YEM: License CC-BY-4.0 (https://creativecommons.org/licenses/by/4.0)
!!!SMS-siglum: PL-CZ
!!!SMS-shelfmark: III-563
!!!SMS-shelfwork: 001-006 M
!!!SMS-variant:
!!!SMS-altvar:
!!!NIFC-rismSourceID: 300001050
!!!NIFC-rismChildID: 300001050
!!!NIFC-islandoraID: pl-cz:39135
!!!URL-pdf-islandora: https://repozytorium.nifc.pl/islandora/object/pl-cz%3A39135/datastream/PDF/view
!!!URL-scan: https://polish.musicsources.pl/pl/lokalizacje/galeria/rekopisy/6951/1 @EN{Scan on Polish Music Sources Website} @PL{Skany w portalu Dziedzictwo Muzyki Polskiej w otwartym dostępie}
!!!IIIF:
!!!ONB-nifc: UWAGA: części Mszy: Kyrie, Gloria, Credo, Et incarnatus, Et resurrexit, Sanctus, Pleni sunt, Benedictus, Agnus Dei, Dona nobis
!!!AIN: 1 alto 1 cor 5 empty 1 organ 1 tenor 2 violn 1 vox
!!!key: E-
**kern	**dynam	**kern	**dynam	**kern	**dynam	**kern	**dynam	**kern	**text	**kern	**text	**dynam	**kern	**text	**kern	**text	**kern	**dynam	**kern	**dynam	**kern	**dynam	**kern
*part12	*	*part11	*	*part10	*	*part9	*	*part8	*	*part7	*	*	*part6	*	*part5	*	*part4	*	*part3	*	*part2	*	*part1
*staff12	*	*staff11	*	*staff10	*	*staff9	*	*staff8	*	*staff7	*	*	*staff6	*	*staff5	*	*staff4	*	*staff3	*	*staff2	*	*staff1
*Iorgan	*	*Iempty	*	*Ivioln	*	*Ivioln	*	*Iempty	*	*Itenor	*	*	*Ialto	*	*Ivox	*	*Icor	*	*Iempty	*	*Iempty	*	*Iempty
*I"Organo.	*	*I"Viola obligata.	*	*I"Violino 2.do	*	*I"Violino Primo	*	*I"Baſso.	*	*I"Tenore.	*	*	*I"Alto.	*	*I"Canto.	*	*I"Corno Secundo in Dis	*	*I"Cornu Primo in Dis.	*	*I"Clarinetto Secondo. in: B	*	*I"Clarinetto Primo. in: B
*I'Org	*	*I'Vla oblig	*	*I'Vl II	*	*I'Vl I	*	*I'B	*	*I'T	*	*	*I'A	*	*I'S	*	*I'Cor II in D#	*	*I'Cor I in D#	*	*I'Cl II in B♭	*	*I'Cl I in B♭
*clefF4	*	*clefC3	*	*clefG2	*	*clefG2	*	*clefF4	*	*clefC4	*	*	*clefC3	*	*clefC1	*	*clefG2	*	*clefG2	*	*clefG2	*	*clefG2
*	*	*	*	*	*	*	*	*	*	*ITrd0c0	*	*	*	*	*	*	*ITrd5c9	*	*ITrd5c9	*	*ITrd1c2	*	*ITrd1c2
*k[b-e-a-]	*	*k[b-e-a-]	*	*k[b-e-a-]	*	*k[b-e-a-]	*	*k[b-e-a-]	*	*k[b-e-a-]	*	*	*k[b-e-a-]	*	*k[b-e-a-]	*	*k[b-e-a-]	*	*k[b-e-a-]	*	*k[b-e-a-]	*	*k[b-e-a-]
*E-:	*	*E-:	*	*E-:	*	*E-:	*	*E-:	*	*E-:	*	*	*E-:	*	*E-:	*	*E-:	*	*E-:	*	*E-:	*	*E-:
*M3/4	*	*M3/4	*	*M3/4	*	*M3/4	*	*M3/4	*	*M3/4	*	*	*M3/4	*	*M3/4	*	*M3/4	*	*M3/4	*	*M3/4	*	*M3/4
=1	=1	=1	=1	=1	=1	=1	=1	=1	=1	=1	=1	=1	=1	=1	=1	=1	=1	=1	=1	=1	=1	=1	=1
*2\right	*	*2\right	*	*2\right	*	*2\right	*	*2\right	*	*2\right	*	*	*2\right	*	*2\right	*	*2\right	*	*2\right	*	*2\right	*	*
*tremolo	*	*tremolo	*	*	*	*	*	*	*	*	*	*	*	*	*	*	*	*	*	*	*	*	*
!	!	!	!	!	!	!	!	!	!	!	!	!	!	!	!	!	!	!	!	!	!	!	!LO:TX:a:t=P:problem=w źródle brak partii Clarinetto Primo
!	!	!LO:TX:t=P:problem=kolejność znaków&colon; e- B- a-, a- zamiast A-	!	!	!	!	!	!	!	!	!	!	!	!	!LO:TX:t=P:problem=kolejność znaków&colon; e- b- a-	!	!	!	!	!	!	!	!
!LO:TX:t=P:znaki:problem= A- zamiast AA-	!	!	!	!	!	!	!	!LO:TX:t=P:znaki:problem= A- zamiast AA-	!	!	!	!	!LO:TX:t=P:znaki:problem= a- zamiast A-	!	!	!	!	!	!LO:TX:a:t=in Dis	!	!	!	!
!LO:TX:a:Bi:t=ad&colon;	!	!LO:TX:a:Bi:t=adagio	!	!LO:TX:a:Bi:t=adagio	!	!LO:TX:a:Bi:t=adagio	!	!LO:TX:b:Bi:t=adagio	!	!LO:TX:a:Bi:t=adagio	!	!	!LO:TX:a:Bi:t=adagio	!	!LO:TX:b:Bi:t=ad&colon;	!	!LO:TX:a:Bi:t=ad&colon;	!	!LO:TX:a:Bi:t=an&colon;	!	!LO:TX:a:Bi:t=Adagio.	!	!
!	!	!	!	!	!	!	!	!	!	!	!	!	!	!	!	!	!	!	!	!	!	!LO:DY:a	!
8C/L	f	8c\L	.	8g/L	.	8ee-\L	.	2c\	San-	2c\	San-	.	2g\	San-	2ee-\	San-	2.G/	.	2.g\	f	2.cc\	f	2.ryy
8C/	.	8c\	.	8g/	.	8ee-\	.	.	.	.	.	.	.	.	.	.	.	.	.	.	.	.	.
8C/	.	8c\	.	8g/	.	8ee-\	.	.	.	.	.	.	.	.	.	.	.	.	.	.	.	.	.
8C/J	.	8c\	.	8g/	.	8ee-\	.	.	.	.	.	.	.	.	.	.	.	.	.	.	.	.	.
*Xtremolo	*	*	*	*	*	*	*	*	*	*	*	*	*	*	*	*	*	*	*	*	*	*	*
8c\L	.	8c\	.	8g/	.	8ee-\	.	4c\	-ctus	4c\	-ctus	.	4g\	-ctus	4ee-\	-ctus	.	.	.	.	.	.	.
8c\J	.	8c\J	.	8g/J	.	8ee-\J	.	.	.	.	.	.	.	.	.	.	.	.	.	.	.	.	.
=2	=2	=2	=2	=2	=2	=2	=2	=2	=2	=2	=2	=2	=2	=2	=2	=2	=2	=2	=2	=2	=2	=2	=2
*tremolo	*	*	*	*tremolo	*	*tremolo	*	*	*	*	*	*	*	*	*	*	*	*	*	*	*	*	*
*	*	*	*	*	*	*	*	*	*ij	*	*ij	*	*	*ij	*	*ij	*	*	*	*	*	*	*
8Bn\L	.	8Bn/L	.	8g/L	.	8dd\L	.	2Bn\	San-	2d\	San-	.	2g\	San-	2dd\	San-	2.G/	.	2.g\	.	2.g/	.	2.ryy
8Bn\	.	8Bn/	.	8g/	.	8dd\	.	.	.	.	.	.	.	.	.	.	.	.	.	.	.	.	.
8Bn\	.	8Bn/	.	8g/	.	8dd\	.	.	.	.	.	.	.	.	.	.	.	.	.	.	.	.	.
8Bn\	.	8Bn/J	.	8g/	.	8dd\J	.	.	.	.	.	.	.	.	.	.	.	.	.	.	.	.	.
*	*	*	*	*	*	*Xtremolo	*	*	*	*	*	*	*	*	*	*	*	*	*	*	*	*	*
8Bn\	.	8d/L	.	8g/	.	8gg\L	.	4B\	-ctus	4Bn\	-ctus	.	4g\	-ctus	4dd\	-ctus	.	.	.	.	.	.	.
8Bn\J	.	8d/J	.	8g/J	.	8ff\J	.	.	.	.	.	.	.	.	.	.	.	.	.	.	.	.	.
*	*	*	*	*	*	*	*	*	*Xij	*	*Xij	*	*	*Xij	*	*Xij	*	*	*	*	*	*	*
=3	=3	=3	=3	=3	=3	=3	=3	=3	=3	=3	=3	=3	=3	=3	=3	=3	=3	=3	=3	=3	=3	=3	=3
*	*	*	*	*	*	*tremolo	*	*	*	*	*	*	*	*	*	*	*	*	*	*	*	*	*
*	*	*	*	*	*	*	*	*	*ij	*	*ij	*	*	*ij	*	*ij	*	*	*	*	*	*	*
8c\L	.	8c\L	p	8g/L	.	8ee-\L	.	2.c\	San-	2.c\	San-	.	2.g\	San-	2.ee-\	San-	2.G/	.	2.g\	.	2.cc\	.	2.ryy
8c\	.	8c\	.	8g/	.	8ee-\	.	.	.	.	.	.	.	.	.	.	.	.	.	.	.	.	.
8c\	.	8c\	.	8g/	.	8ee-\	.	.	.	.	.	.	.	.	.	.	.	.	.	.	.	.	.
8c\J	.	8c\	.	8g/	.	8ee-\	.	.	.	.	.	.	.	.	.	.	.	.	.	.	.	.	.
*Xtremolo	*	*	*	*	*	*	*	*	*	*	*	*	*	*	*	*	*	*	*	*	*	*	*
8C/L	.	8c\	.	8g/	.	8ee-\	.	.	.	.	.	.	.	.	.	.	.	.	.	.	.	.	.
8C/J	.	8c\J	.	8g/J	.	8ee-\J	.	.	.	.	.	.	.	.	.	.	.	.	.	.	.	.	.
*	*	*Xtremolo	*	*Xtremolo	*	*Xtremolo	*	*	*	*	*	*	*	*	*	*	*	*	*	*	*	*	*
=4	=4	=4	=4	=4	=4	=4	=4	=4	=4	=4	=4	=4	=4	=4	=4	=4	=4	=4	=4	=4	=4	=4	=4
!	!	!	!	!	!	!LO:SIC:v:s=8ee-	!	!	!	!LO:SIC:v:s=4Bn	!	!	!	!	!	!	!	!	!	!	!	!	!
4G\	.	4Bn/	.	8g/L	.	8dd\L	.	4G\	-ctus	4B-\	-ctus	.	4g\	-ctus	4dd\	-ctus	4G/	.	4g\	.	4bX\	.	2.ryy
!	!	!	!	!	!LO:DY:a	!	!	!	!	!	!	!	!	!	!	!	!	!	!	!	!	!	!
.	.	.	.	8e-/	p	8gg\	p	.	.	.	.	.	.	.	.	.	.	.	.	.	.	.	.
*	*	*	*	*	*	*	*	*	*Xij	*	*Xij	*	*	*Xij	*	*Xij	*	*	*	*	*	*	*
4r	.	4r	.	(8d/	.	(8ff\	.	4r	.	4r	.	.	4r	.	4r	.	4r	.	4r	.	4r	.	.
.	.	.	.	8c/)	.	8ee-\)	.	.	.	.	.	.	.	.	.	.	.	.	.	.	.	.	.
4r	.	4r	.	(8Bn/	.	(8dd\	.	4r	.	4r	.	.	4r	.	4r	.	4r	.	4r	.	4r	.	.
.	.	.	.	8A-/J)	.	8cc\J)	.	.	.	.	.	.	.	.	.	.	.	.	.	.	.	.	.
=5	=5	=5	=5	=5	=5	=5	=5	=5	=5	=5	=5	=5	=5	=5	=5	=5	=5	=5	=5	=5	=5	=5	=5
!LO:TX:a:t=3	!	!	!LO:DY:a	!	!	!	!	!	!	!	!	!	!	!	!	!	!	!	!LO:TX:a:t=3	!	!LO:TX:a:t=3.	!	!
1.r	.	4G/	p	8G/L	.	8bn\L	.	2.r	.	2.r	.	.	2.r	.	2.r	.	1.r	.	1.r	.	1.r	.	2.ryy
.	.	.	.	8An/	.	8cc\	.	.	.	.	.	.	.	.	.	.	.	.	.	.	.	.	.
.	.	4r	.	8Bn/	.	8dd\	.	.	.	.	.	.	.	.	.	.	.	.	.	.	.	.	.
.	.	.	.	8c/J	.	8ee-\J	.	.	.	.	.	.	.	.	.	.	.	.	.	.	.	.	.
.	.	.	.	8qqe-/	.	8qqgg/	.	.	.	.	.	.	.	.	.	.	.	.	.	.	.	.	.
.	.	4r	.	8d/L	.	8ff\L	.	.	.	.	.	.	.	.	.	.	.	.	.	.	.	.	.
.	.	.	.	16c/L	.	16ee-\L	.	.	.	.	.	.	.	.	.	.	.	.	.	.	.	.	.
.	.	.	.	16B/JJ	.	16dd\JJ	.	.	.	.	.	.	.	.	.	.	.	.	.	.	.	.	.
=6	=6	=6	=6	=6	=6	=6	=6	=6	=6	=6	=6	=6	=6	=6	=6	=6	=6	=6	=6	=6	=6	=6	=6
.	.	4C/	.	8c/L	.	8ee-\L	.	2.r	.	2.r	.	.	2.r	.	2.r	.	.	.	.	.	.	.	2.ryy
.	.	.	.	8e-/	.	8gg\	.	.	.	.	.	.	.	.	.	.	.	.	.	.	.	.	.
.	.	4r	.	(8d/	.	(8ff\	.	.	.	.	.	.	.	.	.	.	.	.	.	.	.	.	.
.	.	.	.	8c/)	.	8ee-\)	.	.	.	.	.	.	.	.	.	.	.	.	.	.	.	.	.
.	.	4r	.	(8Bn/	.	(8dd\	.	.	.	.	.	.	.	.	.	.	.	.	.	.	.	.	.
.	.	.	.	8A-/J)	.	8cc\J)	.	.	.	.	.	.	.	.	.	.	.	.	.	.	.	.	.
=7	=7	=7	=7	=7	=7	=7	=7	=7	=7	=7	=7	=7	=7	=7	=7	=7	=7	=7	=7	=7	=7	=7	=7
2.r	.	4G/	.	8G/L	.	8bn\L	.	2.r	.	2.r	.	.	2.r	.	2.r	.	2.r	.	2.r	.	2.r	.	2.ryy
.	.	.	.	8An/	.	8cc\	.	.	.	.	.	.	.	.	.	.	.	.	.	.	.	.	.
.	.	4r	.	8Bn/	.	8dd\	.	.	.	.	.	.	.	.	.	.	.	.	.	.	.	.	.
.	.	.	.	8c/J	.	8ee-\J	.	.	.	.	.	.	.	.	.	.	.	.	.	.	.	.	.
.	.	.	.	8qqe-/	.	8qqgg/	.	.	.	.	.	.	.	.	.	.	.	.	.	.	.	.	.
.	.	4r	.	8d/L	.	8ff\L	.	.	.	.	.	.	.	.	.	.	.	.	.	.	.	.	.
.	.	.	.	16c/L	.	16ee-\L	.	.	.	.	.	.	.	.	.	.	.	.	.	.	.	.	.
.	.	.	.	16B/JJ	.	16dd\JJ	.	.	.	.	.	.	.	.	.	.	.	.	.	.	.	.	.
=8	=8	=8	=8	=8	=8	=8	=8	=8	=8	=8	=8	=8	=8	=8	=8	=8	=8	=8	=8	=8	=8	=8	=8
*	*	*tremolo	*	*	*	*	*	*	*	*	*	*	*	*	*	*	*	*	*	*	*	*	*
!LO:TX:t=P:problem=mixed beam	!	!	!	!	!LO:DY:a	!	!	!	!	!	!	!	!	!	!	!	!	!	!	!	!	!	!
8C\L	.	8c\L	f	8c/L	f	8ee-\L	f	2c\	San-	2c\	S(an)-	.	2g\	San-	2ee-\	San-	2.e-\	.	2.g\	.	2.cc\	.	2.ryy
8c/J	.	8c\	.	8g/J	.	8ee-\J	.	.	.	.	.	.	.	.	.	.	.	.	.	.	.	.	.
*tremolo	*	*	*	*tremolo	*	*tremolo	*	*	*	*	*	*	*	*	*	*	*	*	*	*	*	*	*
8c\L	.	8c\	.	8g/L	.	8ee-\L	.	.	.	.	.	.	.	.	.	.	.	.	.	.	.	.	.
8c\	.	8c\	.	8g/	.	8ee-\	.	.	.	.	.	.	.	.	.	.	.	.	.	.	.	.	.
8c\	.	8c\	.	8g/	.	8ee-\	.	4c\	-ctus	4c\	-ctus	.	4g\	-ctus	4ee-\	-ctus	.	.	.	.	.	.	.
8c\J	.	8c\J	.	8g/J	.	8ee-\J	.	.	.	.	.	.	.	.	.	.	.	.	.	.	.	.	.
=9	=9	=9	=9	=9	=9	=9	=9	=9	=9	=9	=9	=9	=9	=9	=9	=9	=9	=9	=9	=9	=9	=9	=9
8An\L	.	8c\L	.	8f/L	.	8ee-\L	.	4.An\	Do-	4.c\	Do-	.	4.f\	Do-	4.ee-\	Do-	2.f\	.	4f\	.	2.cc\	.	2.ryy
8An\	.	8c\	.	8f/	.	8ee-\	.	.	.	.	.	.	.	.	.	.	.	.	.	.	.	.	.
8An\	.	8c\	.	8f/	.	8ee-\	.	.	.	.	.	.	.	.	.	.	.	.	4f\	.	.	.	.
8An\	.	8c\	.	8f/	.	8ee-\	.	8A\	-mi-	8c\	-mi-	.	8f\	-mi-	8ee-\	-mi-	.	.	.	.	.	.	.
8An\	.	8c\	.	8f/	.	8ee-\	.	4A\	-nus	4c\	-nus	.	4f\	-nus	4ee-\	-nus	.	.	4f\	.	.	.	.
8An\J	.	8c\J	.	8f/J	.	8ee-\J	.	.	.	.	.	.	.	.	.	.	.	.	.	.	.	.	.
=10	=10	=10	=10	=10	=10	=10	=10	=10	=10	=10	=10	=10	=10	=10	=10	=10	=10	=10	=10	=10	=10	=10	=10
8B-\L	.	8B-/L	.	8f/L	.	8dd\L	.	2B-\	De-	2B-X\	De-	.	2f\	De-	2dd\	De-	2.B-/	.	2.f\	.	2b-\	.	2.ryy
8B-\	.	8B-/	.	8f/	.	8dd\	.	.	.	.	.	.	.	.	.	.	.	.	.	.	.	.	.
8B-\	.	8B-/	.	8f/	.	8dd\	.	.	.	.	.	.	.	.	.	.	.	.	.	.	.	.	.
8B-\	.	8B-/	.	8f/	.	8dd\J	.	.	.	.	.	.	.	.	.	.	.	.	.	.	.	.	.
*	*	*	*	*	*	*Xtremolo	*	*	*	*	*	*	*	*	*	*	*	*	*	*	*	*	*
8B-\	.	8B-/	.	8f/	.	16ee-\LL	.	4B-\	-us	4d\	-us	.	4f\	-us	16ee-\LL	-us	.	.	.	.	4dd\	.	.
.	.	.	.	.	.	16dd\	.	.	.	.	.	.	.	.	16dd\	.	.	.	.	.	.	.	.
8B-\J	.	8B-/J	.	8f/J	.	16cc\	.	.	.	.	.	.	.	.	16cc\	.	.	.	.	.	.	.	.
.	.	.	.	.	.	16b-\JJ	.	.	.	.	.	.	.	.	16b-\JJ	.	.	.	.	.	.	.	.
=11	=11	=11	=11	=11	=11	=11	=11	=11	=11	=11	=11	=11	=11	=11	=11	=11	=11	=11	=11	=11	=11	=11	=11
8c\L	.	8F/L	.	8e-/L	.	2.an/	.	2c\	Sa-	2e-\	Sa-	.	2f\	Sa-	2an\	Sa-	4f\	.	4f\	.	2.ee-\	.	2.ryy
8c\	.	8F/	.	8e-/	.	.	.	.	.	.	.	.	.	.	.	.	.	.	.	.	.	.	.
8c\	.	8F/	.	8e-/	.	.	.	.	.	.	.	.	.	.	.	.	4f\	.	4f\	.	.	.	.
8c\	.	8F/	.	8e-/	.	.	.	.	.	.	.	.	.	.	.	.	.	.	.	.	.	.	.
8c\	.	8F/	.	8e-/	.	.	.	4c\	-ba-	4e-\	-ba-	.	4f\	-ba-	4a\	-ba-	4f\	.	4f\	.	.	.	.
8c\J	.	8F/J	.	8e-/J	.	.	.	.	.	.	.	.	.	.	.	.	.	.	.	.	.	.	.
*Xtremolo	*	*Xtremolo	*	*Xtremolo	*	*	*	*	*	*	*	*	*	*	*	*	*	*	*	*	*	*	*
=12	=12	=12	=12	=12	=12	=12	=12	=12	=12	=12	=12	=12	=12	=12	=12	=12	=12	=12	=12	=12	=12	=12	=12
4B-\	.	4F/	.	4d/	.	4b-/	.	4B-\	-oth	4d\	-oth	.	4f\	-oth	4b-\	-oth	4B-/	.	4f\	.	4dd\	.	2.ryy
!	!	!	!	!	!	!	!	!	!	!	!	!	!LO:TX:a:Bi:t=Solo	!	!	!	!	!	!	!	!	!	!
4r	.	4r	.	4r	.	4r	.	4r	.	4r	.	.	4b-\	S(an)-	4r	.	4r	.	4r	.	4r	.	.
4r	.	4r	.	4r	.	4r	.	4r	.	4r	.	.	4b-\	-ctus	4r	.	4r	.	4r	.	4r	.	.
=13	=13	=13	=13	=13	=13	=13	=13	=13	=13	=13	=13	=13	=13	=13	=13	=13	=13	=13	=13	=13	=13	=13	=13
!	!	!	!LO:DY:a	!	!	!	!	!	!	!	!	!	!	!	!	!	!	!	!LO:TX:a:t=4	!	!LO:TX:a:t=4.	!	!
4BB-/	p	2.B-/	p	8f/L	pp	(8aa-X\L	p	1.r	.	0.r	.	.	4.b-\	Do-	0.r	.	0.r	.	0.r	.	0.r	.	2.ryy
.	.	.	.	8d/J	.	8ff\J)	.	.	.	.	.	.	.	.	.	.	.	.	.	.	.	.	.
4r	.	.	.	8r	.	8r	.	.	.	.	.	.	.	.	.	.	.	.	.	.	.	.	.
.	.	.	.	8d/L	.	8ff|>\L	.	.	.	.	.	.	8b-\	-mi-	.	.	.	.	.	.	.	.	.
4r	.	.	.	8d/	.	8ff|>\	.	.	.	.	.	.	4b-\	-nus	.	.	.	.	.	.	.	.	.
.	.	.	.	8d/J	.	8ff|>\J	.	.	.	.	.	.	.	.	.	.	.	.	.	.	.	.	.
=14	=14	=14	=14	=14	=14	=14	=14	=14	=14	=14	=14	=14	=14	=14	=14	=14	=14	=14	=14	=14	=14	=14	=14
4E-\	.	2.B-/	.	(8d/L	.	(8ff#X\L	.	.	.	.	.	.	2b-\	De-	.	.	.	.	.	.	.	.	2.ryy
.	.	.	.	8e-/J)	.	8gg\J)	.	.	.	.	.	.	.	.	.	.	.	.	.	.	.	.	.
4EE-/	.	.	.	8r	.	8r	.	.	.	.	.	.	.	.	.	.	.	.	.	.	.	.	.
.	.	.	.	8e-|>/L	.	8gg|>\L	.	.	.	.	.	.	.	.	.	.	.	.	.	.	.	.	.
4r	.	.	.	(8e-/	.	(8gg\	.	.	.	.	.	.	4b-\	-us	.	.	.	.	.	.	.	.	.
.	.	.	.	8g/J)	.	8bb-\J)	.	.	.	.	.	.	.	.	.	.	.	.	.	.	.	.	.
=15	=15	=15	=15	=15	=15	=15	=15	=15	=15	=15	=15	=15	=15	=15	=15	=15	=15	=15	=15	=15	=15	=15	=15
!	!	!	!	!	!	!	!	!LO:TX:a:Bi:t=Seque Solo	!	!	!	!	!	!	!	!	!	!	!	!	!	!	!
4B-\	.	2.B-/	.	(8f/L	.	(8bb-\L	.	2.r	.	.	.	.	2b-\	Sa-	.	.	.	.	.	.	.	.	2.ryy
.	.	.	.	8d/J)	.	8aa-\J)	.	.	.	.	.	.	.	.	.	.	.	.	.	.	.	.	.
4BB-/	.	.	.	8r	.	8r	.	.	.	.	.	.	.	.	.	.	.	.	.	.	.	.	.
.	.	.	.	8d/L	.	8ff\L	.	.	.	.	.	.	.	.	.	.	.	.	.	.	.	.	.
4r	.	.	.	8d/	.	8ff\	.	.	.	.	.	.	4b-\	-ba-	.	.	.	.	.	.	.	.	.
.	.	.	.	8d/J	.	8ff\J	.	.	.	.	.	.	.	.	.	.	.	.	.	.	.	.	.
=16	=16	=16	=16	=16	=16	=16	=16	=16	=16	=16	=16	=16	=16	=16	=16	=16	=16	=16	=16	=16	=16	=16	=16
4E-\	.	4B-/	.	4e-/	.	4gg\	.	4r	.	.	.	.	4b-\	-oth	.	.	.	.	.	.	.	.	2.ryy
4r	.	4r	.	4r	.	4r	.	4B-\	Do-	.	.	.	4r	.	.	.	.	.	.	.	.	.	.
4r	.	4r	.	4r	.	4r	.	8B-\L	-mi-	.	.	.	4r	.	.	.	.	.	.	.	.	.	.
.	.	.	.	.	.	.	.	8B-\J	-nus	.	.	.	.	.	.	.	.	.	.	.	.	.	.
=17	=17	=17	=17	=17	=17	=17	=17	=17	=17	=17	=17	=17	=17	=17	=17	=17	=17	=17	=17	=17	=17	=17	=17
!	!	!	!	!	!LO:DY:a	!	!	!	!	!	!	!	!	!	!	!	!LO:TX:t=P:problem=mixed beam	!LO:DY:a	!	!LO:DY:a	!	!LO:DY:a	!
4B-\	.	2.B-/	.	(8f/L	p	(8a-/L	.	2.B-\	De-	1.r	.	.	1.r	.	1.r	.	8f\L	p	8a-\L	p	8ff\L	p	2.ryy
.	.	.	.	8d/J)	.	8f/J)	.	.	.	.	.	.	.	.	.	.	8B-\J	.	8f\J	.	8dd\J	.	.
4BB-/	.	.	.	8r	.	8r	.	.	.	.	.	.	.	.	.	.	8r	.	8r	.	8r	.	.
.	.	.	.	8d/L	.	8f/L	.	.	.	.	.	.	.	.	.	.	8B-/L	.	8f\L	.	8dd\L	.	.
4r	.	.	.	8d/	.	8f/	.	.	.	.	.	.	.	.	.	.	8B-/	.	8f\	.	8dd\	.	.
.	.	.	.	8d/J	.	8f/J	.	.	.	.	.	.	.	.	.	.	8B-/J	.	8f\J	.	8dd\J	.	.
=18	=18	=18	=18	=18	=18	=18	=18	=18	=18	=18	=18	=18	=18	=18	=18	=18	=18	=18	=18	=18	=18	=18	=18
4E-\	.	2.B-/	.	(8d/L	.	8f/L	.	2.B-\	-us	.	.	.	.	.	.	.	8B-\L	.	8f\L	.	8dd\L	.	2.ryy
.	.	.	.	8e-/J)	.	8g/J	.	.	.	.	.	.	.	.	.	.	8e-\J	.	8g\J	.	8ee-\J	.	.
4EE-/	.	.	.	8r	.	8r	.	.	.	.	.	.	.	.	.	.	8r	.	8r	.	8r	.	.
.	.	.	.	8e-|>/L	.	8g/L	.	.	.	.	.	.	.	.	.	.	8e-\L	.	8g\L	.	8ee-\L	.	.
4r	.	.	.	(8e-/	.	(8g/	.	.	.	.	.	.	.	.	.	.	8e-\	.	8g\	.	8ee-\	.	.
.	.	.	.	8g/J)	.	8b-/J)	.	.	.	.	.	.	.	.	.	.	8g\J	.	8b-\J	.	8gg\J	.	.
=19	=19	=19	=19	=19	=19	=19	=19	=19	=19	=19	=19	=19	=19	=19	=19	=19	=19	=19	=19	=19	=19	=19	=19
4B-\	.	2.B-/	.	8g/L	.	8b-/L	.	2B-\	Sa-	2.r	.	.	2.r	.	2.r	.	8g\L	.	8b-\L	.	8gg\L	.	2.ryy
.	.	.	.	8f/J	.	8a-/J	.	.	.	.	.	.	.	.	.	.	8f\J	.	8a-\J	.	8ff\J	.	.
4BB-/	.	.	.	8r	.	8r	.	.	.	.	.	.	.	.	.	.	8r	.	8r	.	8r	.	.
.	.	.	.	8d/L	.	8f/L	.	.	.	.	.	.	.	.	.	.	8B-/L	.	8f\L	.	8dd\L	.	.
4r	.	.	.	8d/	.	8f/	.	4B-\	-ba-	.	.	.	.	.	.	.	8B-/	.	8f\	.	8dd\	.	.
.	.	.	.	8d/J	.	8f/J	.	.	.	.	.	.	.	.	.	.	8B-/J	.	8f\J	.	8dd\J	.	.
=20	=20	=20	=20	=20	=20	=20	=20	=20	=20	=20	=20	=20	=20	=20	=20	=20	=20	=20	=20	=20	=20	=20	=20
4E-\	.	4B-/	.	4e-/	.	4g/	.	4E-\	-oth	4r	.	.	4r	.	4r	.	4e-\	.	4g\	.	4ee-\	.	2.ryy
!	!	!	!	!	!	!	!	!LO:TX:a:Bi:t=T.	!	!	!	!LO:DY:a	!	!	!	!	!	!	!	!	!	!	!
4r	.	4r	.	4r	.	4r	.	4G\	Do-	4G/	Do-	p	4g\	Do-	4g\	Do-	4r	.	4r	.	4r	.	.
!	!	!	!	!LO:TX:t=P:problem=w źródle wykreślone takty	!	!	!	!	!	!	!	!	!	!	!	!	!	!	!	!	!	!	!
4r	.	4r	.	4r	.	4r	.	8G\	-mi-	8G/	-mi-	.	8g\	-mi-	8g\	-mi-	4r	.	4r	.	4r	.	.
.	.	.	.	.	.	.	.	8G\	-nus	8G/	-nus	.	8g\	-nus	8g\	-nus	.	.	.	.	.	.	.
=21	=21	=21	=21	=21	=21	=21	=21	=21	=21	=21	=21	=21	=21	=21	=21	=21	=21	=21	=21	=21	=21	=21	=21
!	!	!	!LO:DY:a	!	!	!	!	!	!	!	!	!	!	!	!	!	!	!	!	!	!	!	!
4G\	p	2.g\	p	(8d/L	.	(8ff\L	p	2.G\	De-	2.Bn\	De-	.	2.f\	De-	2.g\	De-	2.G/	.	2.g\	.	2.bX\	.	2.ryy
.	.	.	.	8Bn/J)	.	8dd\J)	.	.	.	.	.	.	.	.	.	.	.	.	.	.	.	.	.
4G\	.	.	.	8r	.	8r	.	.	.	.	.	.	.	.	.	.	.	.	.	.	.	.	.
.	.	.	.	8B/L	.	8dd\L	.	.	.	.	.	.	.	.	.	.	.	.	.	.	.	.	.
4r	.	.	.	8B/	.	8dd\	.	.	.	.	.	.	.	.	.	.	.	.	.	.	.	.	.
.	.	.	.	8B/J	.	8dd\J	.	.	.	.	.	.	.	.	.	.	.	.	.	.	.	.	.
=22	=22	=22	=22	=22	=22	=22	=22	=22	=22	=22	=22	=22	=22	=22	=22	=22	=22	=22	=22	=22	=22	=22	=22
*	*	*tremolo	*	*	*	*	*	*	*	*	*	*	*	*	*	*	*	*	*	*	*	*	*
!	!	!	!	!LO:SIC:v:s=8Bn	!	!	!	!	!	!	!	!	!	!	!	!	!	!	!	!	!	!	!
4G\	.	8g\L	.	(8B-/L	.	(8dd\L	.	2.G\	-us	2.c\	-us	.	2.e-\	-us	2.g\	-us	2.G/	.	2.g\	.	2.cc\	.	2.ryy
.	.	8g\	.	8c/J)	.	8ee-\J)	.	.	.	.	.	.	.	.	.	.	.	.	.	.	.	.	.
4G\	.	8g\	.	8r	.	8r	.	.	.	.	.	.	.	.	.	.	.	.	.	.	.	.	.
.	.	8g\	.	8e-/L	.	8cc\L	.	.	.	.	.	.	.	.	.	.	.	.	.	.	.	.	.
4r	.	8g\	.	8e-/	.	8cc\	.	.	.	.	.	.	.	.	.	.	.	.	.	.	.	.	.
.	.	8g\J	.	8e-/J	.	8cc\J	.	.	.	.	.	.	.	.	.	.	.	.	.	.	.	.	.
=23	=23	=23	=23	=23	=23	=23	=23	=23	=23	=23	=23	=23	=23	=23	=23	=23	=23	=23	=23	=23	=23	=23	=23
*	*	*	*	*	*	*	*	*	*	*	*ij	*	*	*ij	*	*ij	*	*	*	*	*	*	*
!	!	!	!	!	!	!	!	!	!	!LO:SIC:v:s=2.Bn	!	!	!	!	!	!	!	!	!	!	!	!	!
4G\	.	8f\L	.	(8d/L	.	(8bn\L	.	2.G\	De-	2.B-\	De-	.	2.f\	De-	2.g\	De-	2.G/	.	2.g\	.	2.dd\	.	2.ryy
.	.	8f\	.	8f/J)	.	8dd\J)	.	.	.	.	.	.	.	.	.	.	.	.	.	.	.	.	.
4GG/	.	8f\	.	8r	.	8r	.	.	.	.	.	.	.	.	.	.	.	.	.	.	.	.	.
.	.	8f\	.	8d/L	.	8b\L	.	.	.	.	.	.	.	.	.	.	.	.	.	.	.	.	.
4r	.	8f\	.	8d/	.	8b\	.	.	.	.	.	.	.	.	.	.	.	.	.	.	.	.	.
.	.	8f\J	.	8d/J	.	8b\J	.	.	.	.	.	.	.	.	.	.	.	.	.	.	.	.	.
*	*	*Xtremolo	*	*	*	*	*	*	*	*	*	*	*	*	*	*	*	*	*	*	*	*	*
=24	=24	=24	=24	=24	=24	=24	=24	=24	=24	=24	=24	=24	=24	=24	=24	=24	=24	=24	=24	=24	=24	=24	=24
4G\	.	4e-\	.	(8d/L	.	(8bn\L	.	2.G\	-us	2.c\	-us	.	2.e-\	-us	2.g\	-us	4G/	.	4g\	.	2.cc\	.	2.ryy
.	.	.	.	8e-/J)	.	8cc\J)	.	.	.	.	.	.	.	.	.	.	.	.	.	.	.	.	.
4GG/	.	2G/	.	8r	.	8r	.	.	.	.	.	.	.	.	.	.	4r	.	4r	.	.	.	.
.	.	.	.	8e-/L	.	8cc\L	.	.	.	.	.	.	.	.	.	.	.	.	.	.	.	.	.
4r	.	.	.	8d/	.	8dd\	.	.	.	.	.	.	.	.	.	.	4r	.	4r	.	.	.	.
.	.	.	.	8c/J	.	8ee-\J	.	.	.	.	.	.	.	.	.	.	.	.	.	.	.	.	.
*	*	*	*	*	*	*	*	*	*	*	*Xij	*	*	*Xij	*	*Xij	*	*	*	*	*	*	*
=25	=25	=25	=25	=25	=25	=25	=25	=25	=25	=25	=25	=25	=25	=25	=25	=25	=25	=25	=25	=25	=25	=25	=25
4A-\	.	4A-/	.	4c/	.	4f#X/	.	2A-\	Sa-	2c\	Sa-	.	2e-\	Sa-	2f#X/	Sa-	1.r	.	1.r	.	4cc\	.	2.ryy
4A-\	.	4A-/	.	4c/	.	4f#/	.	.	.	.	.	.	.	.	.	.	.	.	.	.	4cc\	.	.
4A-\	.	4A-/	.	4c/	.	4f#/	.	4A-\	-ba-	4c\	-ba-	.	4c\	-ba-	4f#/	-ba-	.	.	.	.	4cc\	.	.
=26	=26	=26	=26	=26	=26	=26	=26	=26	=26	=26	=26	=26	=26	=26	=26	=26	=26	=26	=26	=26	=26	=26	=26
2G\	.	2G;/	.	2Bn;/	.	2g;/	.	2G;\	-oth	2Bn;\	-oth	.	2d;\	-oth.	4g;\	-o[t]h.	.	.	.	.	2bX;\	.	2.ryy
.	.	.	.	.	.	.	.	.	.	.	.	.	.	.	4r	.	.	.	.	.	.	.	.
4r	.	4r	.	4r	.	4r	.	4r	.	4r	.	.	4r	.	4r	.	.	.	.	.	4r	.	.
==	==	==	==	==	==	==	==	==	==	==	==	==	==	==	==	==	==	==	==	==	==	==	==
*-	*-	*-	*-	*-	*-	*-	*-	*-	*-	*-	*-	*-	*-	*-	*-	*-	*-	*-	*-	*-	*-	*-	*-
!!!system-decoration: [(s1,s2)][(s3,s4)][(s5,s6,s7,s8)][(s9,s10,s11)][(s12)]
!!!RDF**kern: > = above
!!!RDF**kern: < = below
!!!RDF**dynam: > = "Dim:", fontstyle= "bold-italic"
!!!RDF**dynam: < = "Cres:", fontstyle= "bold-italic"
!!!RDF**kern: | = vertical stroke
!!!RDF**kern: N = linked
!!!RDF**kern: i = editorial accidental
!!!RDF**kern: l = terminal long
!!!ENC: Katarzyna Serwa
!!!END: 2020-09-25
!!!EED: Wojciech Jakubiak-Danek
!!!EEV: 2022-02-02
